X:2405
T:Arrane Mummeryn
T:Mummers song 
C:Mrs Ferrier, Castletown.
C:Traditional
O:Isle of Man
Z:Collected by A.W.Moore et.al.
B:Kiaull Vannin #405 
N:See also KV #307
M:3/4 
L:1/8 
K:D 
d2 dd ce|d2 dd ce|dd fe dc|BB ed cA|d2 dd ce|d2 dd dc|
ed df ed|cB Be dc|A3A AA|D3 A AA|C6|| 

